src/assets/svg/bg/key-facts-bg-lower-left.svg

<svg xmlns="http://www.w3.org/2000/svg" width="1665" height="943" fill="none" viewBox="0 0 1665 943"><mask id="a" width="1665" height="944" x="0" y="-1" maskUnits="userSpaceOnUse" style="mask-type:luminance"><path fill="#fff" fill-rule="evenodd" d="M0 352.811 1528.2-.001l136.11 589.535L136.105 942.346z" clip-rule="evenodd"/></mask><g stroke="#707070" stroke-width=".25" mask="url(#a)"><path d="M-427.699 1072.51 712.788 809.211l159.87-246.813 278.852-64.378 114.67-168.829 320.92-74.089"/><path d="M-444.029 1056.05 696.48 792.745l159.871-246.813 278.849-64.377 114.65-168.824 320.94-74.094"/><path d="m-460.342 1039.58 1140.51-263.302 159.866-246.83 278.846-64.378 114.66-168.806 320.94-74.095"/><path d="M-476.652 1023.12 663.857 759.812l159.844-246.825 278.849-64.378 114.68-168.812 320.94-74.094"/><path d="M-492.969 1006.63 647.518 743.333 807.389 496.52l278.851-64.378 114.68-168.811 320.91-74.089"/><path d="m-509.297 990.174 1140.51-263.307 159.871-246.813 278.846-64.377 114.66-168.807 320.94-74.094"/><path d="M-525.607 973.707 614.902 710.4l159.871-246.813 278.847-64.377 114.66-168.807 320.94-74.094"/><path d="M-478.797 942.669 598.591 693.935l159.847-246.808 278.852-64.378 114.67-168.828 320.94-74.095"/><path d="M-498.828 927.06 582.28 677.467l159.848-246.808 278.852-64.377 114.67-168.828 320.94-74.095"/><path d="M-463.848 898.751 565.946 661.005l159.871-246.814 278.853-64.377 114.65-168.824 320.94-74.094"/></g></svg>

<svg width="1665" height="943" viewBox="0 0 1665 943" fill="none" xmlns="http://www.w3.org/2000/svg">
<mask id="mask0_0_4655" style="mask-type:luminance" maskUnits="userSpaceOnUse" x="0" y="-1" width="1665" height="944">
<path fill-rule="evenodd" clip-rule="evenodd" d="M0.000784126 352.811L1528.2 -0.0012675L1664.31 589.534L136.105 942.346L0.000784126 352.811V352.811Z" fill="white"/>
</mask>
<g mask="url(#mask0_0_4655)">
<path d="M-427.699 1072.51L712.788 809.211L872.658 562.398L1151.51 498.02L1266.18 329.191L1587.1 255.102" stroke="#707070" stroke-width="0.25"/>
<path d="M-444.029 1056.05L696.48 792.745L856.351 545.932L1135.2 481.555L1249.85 312.731L1570.79 238.637" stroke="#707070" stroke-width="0.25"/>
<path d="M-460.342 1039.58L680.168 776.278L840.034 529.448L1118.88 465.07L1233.54 296.264L1554.48 222.169" stroke="#707070" stroke-width="0.25"/>
<path d="M-476.652 1023.12L663.857 759.812L823.701 512.987L1102.55 448.609L1217.23 279.797L1538.17 205.703" stroke="#707070" stroke-width="0.25"/>
<path d="M-492.969 1006.63L647.518 743.333L807.389 496.52L1086.24 432.142L1200.92 263.331L1521.83 189.242" stroke="#707070" stroke-width="0.25"/>
<path d="M-509.297 990.174L631.213 726.867L791.084 480.054L1069.93 415.677L1184.59 246.87L1505.53 172.776" stroke="#707070" stroke-width="0.25"/>
<path d="M-525.607 973.707L614.902 710.4L774.773 463.587L1053.62 399.21L1168.28 230.403L1489.22 156.309" stroke="#707070" stroke-width="0.25"/>
<path d="M-478.797 942.669L598.591 693.935L758.438 447.127L1037.29 382.749L1151.96 213.921L1472.9 139.826" stroke="#707070" stroke-width="0.25"/>
<path d="M-498.828 927.06L582.28 677.467L742.128 430.659L1020.98 366.282L1135.65 197.454L1456.59 123.359" stroke="#707070" stroke-width="0.25"/>
<path d="M-463.848 898.751L565.946 661.005L725.817 414.191L1004.67 349.814L1119.32 180.99L1440.26 106.896" stroke="#707070" stroke-width="0.25"/>
</g>
</svg>
